!!!COM: Mozart
!!!OTL: 12 Variations on "Ah Vous dirais-je, Maman" for the Piano
!!!Variation: 10 b
**function	**harm	**kern	**kern
*	*	*clefF4	*clefG2
*	*	*k[]	*k[]
*M2/4	*M2/4	*M2/4	*M2/4
*C:	*C:	*C:	*C:
=249	=249	=249	=249
2D	Ic	4GGG 4GG	r
.	.	.	(16eLL
.	.	.	16cc
.	.	.	16eJJ)
*	*	*clefG2	*
.	.	4gg	r
.	.	.	(16eLL
.	.	.	16cc
.	.	.	16eJJ)
=250	=250	=250	=250
2D	V7	4ff#	r
.	.	.	(16dLL
.	.	.	16cc
.	.	.	16dJJ)
.	.	4ff	r
.	.	.	(16dLL
.	.	.	16b
.	.	.	16dJJ)
=251	=251	=251	=251
2D	Ic	4ee	r
.	.	.	(16cLL
.	.	.	16cc
.	.	.	16cJJ)
*	*	*clefF4	*
.	.	4GG 4G	r
.	.	.	(16gLL
.	.	.	16cc 16ee-
.	.	.	16gJJ)
=252	=252	=252	=252
4D	V7b/V	4FF# 4F#	r
.	.	.	(16aLL
.	.	.	16cc 16dd
.	.	.	16aJJ)
4D	viioD7c	4FF 4F	r
.	.	.	(16a-LL
.	.	.	16b 16dd
.	.	.	16a-JJ)
=253	=253	=253	=253
4T	Ib	4EE 4E	r
.	.	.	(16gLL
.	.	.	16cc 16ee
.	.	.	16gJJ)
4T	Lt/V	4EE- 4E-	r
.	.	.	(16gLL
.	.	.	16cc# 16gg
.	.	.	16gJJ)
=254	=254	=254	=254
4T	V/V	4DD 4D	r
.	.	.	(16aLL
.	.	.	16dd 16ff#
.	.	.	16aJJ)
4T	viioD7	4BBB 4BB	r
.	.	.	(16a-LL
.	.	.	16dd 16ff
.	.	.	16a-JJ)
=255	=255	=255	=255
4T	I	4CC 4C	r
.	.	.	(16gLL
.	.	.	16cc 16ee
.	.	.	16gJJ)
4P	viioD7/V	4FFF# 4FF#	r
.	.	.	(16aLL
.	.	.	16cc 16ee-
.	.	.	16aJJ)
=256	=256	=256	=256
2D	V	4GGG 4GG	(16bLL 16dd
.	.	.	16cc
.	.	.	16b
.	.	.	16aJJ
.	.	r	16gLL
.	.	.	16f
.	.	.	16e
.	.	.	16dJJ)
*-	*-	*-	*-
